!! 00000] TT[00
!!!OTL: Laba Xiaodiao
!!!ARE: Asia, China,Hubei
!! Ethnic Group: Han
!! Zhongguo Minge Xuan, S. 98 (2)
!!!SCT: C1111
!!!YEM: Copyright 1995, estate of Helmut Schaffrath.
**kern
*ICvox
*Ivox
*M2/4
*k[f#c#]
*D:
{8a
8a
8a
8b
=1
8dd
4ee
8b
=2
8dd
8ee
16dd
16ee
8b
=3
4.a
8b}
=4
{8.ee
16ee
8dd
8ee
=5
4a
4b
=6
8ee
8dd
8b
8b
=7
8a
4.a}
=8
{8a
8a
8a
8b
=9
8dd
4ee
8b
=10
8dd
8ee
16dd
16ee
8b
=11
4.a
8b}
=12
{8.ee
16ee
8dd
8ee
=13
4a
4b
=14
8ee
8dd
8b
8b
=15
2a}
=16
{16b
16dd
16f#
16a
4a
=17
8dd
16b
16dd
8b
8a
=18
8b
8dd
8a
8a
=19
4dd
4b}
=20
{8.a
16a
8a
16a
16b
=21
4dd
4b
=22
8a
8a
8a
8b
=23
16b
16dd
4ee
8b}
=24
{8dd
8dd
8ee
8dd
=25
8b
16b
16dd
8b
8a
=26
8.b
16b
8b
16b
16dd
=27
4a
4r}
=28
{4dd
4ee
=29
4a
4b
=30
8ee
8dd
8b
8b
=31
8a
4.a}
=32
{8a
8a
8a
8b
=33
8dd
4ee
8b
=34
8dd
8ee
16dd
16ee
16dd
16b
=35
4.a
8b}
=36
{8ee
8ee
8dd
8ee
=37
4a
4b
=38
8ee
8dd
8b
8b
=39
2a}
==
!!!AGN: Xiaodiao
!! Ausgabe mit Begleitung. Hier nur die Version der ersten Strophe
!!    aufgeschrieben und Abschluá mit Klammer 3 direkt gespielt.
!!    Vor-, Zwischen- und Nachspiel.
!!    +++ Muá ggf. nachgebessert werden.
!!!ONB: ESAC (Essen Associative Code) Database: CHINA_065
!!!AMT: simple duple
!!!AIN: vox
!!!EED: Helmut Schaffrath
!!!EEV: 1.0
*-
